img/subtract-17.svg

<svg fill="none" height="32" viewBox="0 0 31 32" width="31" xmlns="http://www.w3.org/2000/svg"><path clip-rule="evenodd" d="m22.1239 24.3902c4.0095-.4788 7.5005-2.9492 7.9393-5.2065.6913-3.5559.6343-8.6776.6343-8.6776 0-6.94177-4.5481-8.97651-4.5481-8.97651-2.2932-1.053231-6.231-1.4961431-10.322-1.52959h-.1005c-4.091.0334469-8.02622.476359-10.31957 1.52959 0 0-4.54826 2.03474-4.54826 8.97651 0 .4208-.002175.8635-.004439 1.3243-.006289 1.2797-.013266 2.6995.023749 4.1815.16517 6.7887 1.2446 13.4793 7.52124 15.1406 2.89398.766 5.37878.9263 7.37988.8163 3.629-.2012 5.6661-1.2951 5.6661-1.2951l-.1196-2.633s-2.5934.8177-5.5058.7181c-2.8856-.099-5.93185-.3112-6.39856-3.854-.0431-.3112-.06465-.6439-.06465-.9934 0 0 2.83261.6924 6.42251.8569 2.1951.1007 4.2536-.1286 6.3444-.3781zm3.2087-4.9404v-8.4053c0-1.7179-.4374-3.08302-1.3158-4.09298-.9062-1.00995-2.0927-1.52769-3.5653-1.52769-1.7043 0-2.9948.65497-3.8478 1.96509l-.8296 1.39046-.8295-1.39046c-.8532-1.31012-2.1437-1.96509-3.8478-1.96509-1.47283 0-2.65933.51774-3.56533 1.52769-.87858 1.00996-1.31598 2.37508-1.31598 4.09298v8.4053h3.33004v-8.1583c0-1.71974.72357-2.59264 2.17097-2.59264 1.6002 0 2.4025 1.03548 2.4025 3.08294v4.4655h3.3103v-4.4655c0-2.04746.8021-3.08294 2.4023-3.08294 1.4474 0 2.171.8729 2.171 2.59264v8.1583z" fill="#fff" fill-rule="evenodd"/></svg>

<svg width="31" height="32" viewBox="0 0 31 32" fill="none" xmlns="http://www.w3.org/2000/svg">
<path fill-rule="evenodd" clip-rule="evenodd" d="M22.1239 24.3902C26.1334 23.9114 29.6244 21.441 30.0632 19.1837C30.7545 15.6278 30.6975 10.5061 30.6975 10.5061C30.6975 3.56433 26.1494 1.52959 26.1494 1.52959C23.8562 0.476359 19.9184 0.0334469 15.8274 0H15.7269C11.6359 0.0334469 7.70068 0.476359 5.40733 1.52959C5.40733 1.52959 0.85907 3.56433 0.85907 10.5061C0.85907 10.9269 0.856895 11.3696 0.854631 11.8304C0.848342 13.1101 0.841365 14.5299 0.87838 16.0119C1.04355 22.8006 2.12298 29.4912 8.39962 31.1525C11.2936 31.9185 13.7784 32.0788 15.7795 31.9688C19.4085 31.7676 21.4456 30.6737 21.4456 30.6737L21.326 28.0407C21.326 28.0407 18.7326 28.8584 15.8202 28.7588C12.9346 28.6598 9.88835 28.4476 9.42164 24.9048C9.37854 24.5936 9.35699 24.2609 9.35699 23.9114C9.35699 23.9114 12.1896 24.6038 15.7795 24.7683C17.9746 24.869 20.0331 24.6397 22.1239 24.3902ZM25.3326 19.4498V11.0445C25.3326 9.3266 24.8952 7.96148 24.0168 6.95152C23.1106 5.94157 21.9241 5.42383 20.4515 5.42383C18.7472 5.42383 17.4567 6.0788 16.6037 7.38892L15.7741 8.77938L14.9446 7.38892C14.0914 6.0788 12.8009 5.42383 11.0968 5.42383C9.62397 5.42383 8.43747 5.94157 7.53147 6.95152C6.65289 7.96148 6.21549 9.3266 6.21549 11.0445V19.4498H9.54553V11.2915C9.54553 9.57176 10.2691 8.69886 11.7165 8.69886C13.3167 8.69886 14.119 9.73434 14.119 11.7818V16.2473H17.4293V11.7818C17.4293 9.73434 18.2314 8.69886 19.8316 8.69886C21.279 8.69886 22.0026 9.57176 22.0026 11.2915V19.4498H25.3326Z" fill="white"/>
</svg>
